_site/images/person.svg

<svg version="1.1" xmlns="http://www.w3.org/2000/svg" xmlns:xlink="http://www.w3.org/1999/xlink" width="40" height="40" viewBox="0 0 768 768" >
  <path
    fill="#3cb371"
    d="M384 0q52.25 0 96.375 25.75t69.875 69.875 25.75 96.375v96q0 40-15.5 75.75t-43.25 62.25q73 11.5 129.75 33.875t88.875 52.875 32.125 64.25v63q0 39.75-28.125 67.875t-67.875 28.125h-576q-39.75 0-67.875-28.125t-28.125-67.875v-63.25q0-33.75 32.125-64.25t88.75-52.875 129.625-33.625q-27.5-26.75-43-62.375t-15.5-75.625v-96q0-52.25 25.75-96.375t69.875-69.875 96.375-25.75zM384 480q-69.5 0-134.125 11.125t-112.625 31.125q-19.25 8-34.375 17t-23 16.25-11.875 12.625-4 8.625v63.25q0 13.25 9.375 22.625t22.625 9.375h576q13.25 0 22.625-9.375t9.375-22.625v-63q0-3.25-4-8.625t-11.875-12.625-23-16.25-34.375-17.25q-48-20-112.625-31.125t-134.125-11.125zM384 64q-53 0-90.5 37.5t-37.5 90.5v96q0 53 37.5 90.5t90.5 37.5 90.5-37.5 37.5-90.5v-96q0-53-37.5-90.5t-90.5-37.5z"
  ></path>
</svg>

<svg xmlns="http://www.w3.org/2000/svg" width="40" height="40" viewBox="0 0 768 768"><path fill="#3cb371" d="M384 0q52.25 0 96.375 25.75t69.875 69.875T576 192v96q0 40-15.5 75.75T517.25 426q73 11.5 129.75 33.875t88.875 52.875T768 577v63q0 39.75-28.125 67.875T672 736H96q-39.75 0-67.875-28.125T0 640v-63.25Q0 543 32.125 512.5t88.75-52.875T250.5 426q-27.5-26.75-43-62.375T192 288v-96q0-52.25 25.75-96.375t69.875-69.875T384 0zm0 480q-69.5 0-134.125 11.125T137.25 522.25q-19.25 8-34.375 17t-23 16.25T68 568.125t-4 8.625V640q0 13.25 9.375 22.625T96 672h576q13.25 0 22.625-9.375T704 640v-63q0-3.25-4-8.625t-11.875-12.625-23-16.25-34.375-17.25q-48-20-112.625-31.125T384 480zm0-416q-53 0-90.5 37.5T256 192v96q0 53 37.5 90.5T384 416t90.5-37.5T512 288v-96q0-53-37.5-90.5T384 64z"/></svg>
